images/gen-slider/7.svg

<svg width="260" height="32" viewBox="0 0 260 32" fill="none" xmlns="http://www.w3.org/2000/svg">
<path d="M37.0859 0.523895H30.0964V30.958H37.0859V0.523895Z" fill="#FCFCFC"/>
<path fill-rule="evenodd" clip-rule="evenodd" d="M41.8825 7.04548H50.6903V30.958H57.6617V7.04548H67.1702V7.02742L63.2375 0.523895H41.8825V7.04548Z" fill="#FCFCFC"/>
<path fill-rule="evenodd" clip-rule="evenodd" d="M96.131 0.523895H88.5918L82.1339 12.0496L75.5914 0.523895H67.6052L78.3401 18.5712V30.958H85.3115V18.5712L96.131 0.523895Z" fill="#FCFCFC"/>
<path fill-rule="evenodd" clip-rule="evenodd" d="M177.377 30.958V7.05753L173.408 0.523895H170.834V18.8783L156.354 0.523895H150.778V30.958H157.321V12.706L171.783 30.958H177.377Z" fill="#FCFCFC"/>
<path fill-rule="evenodd" clip-rule="evenodd" d="M182.971 7.04548H188.51V30.958H195.482V7.04548H204.646V0.523895H179.014L182.971 7.04548Z" fill="#FCFCFC"/>
<path fill-rule="evenodd" clip-rule="evenodd" d="M209.497 30.958H227.934V24.4364H216.468V18.9144H227.934V12.3928H216.468V7.04548H227.934V0.523895H209.497V30.958Z" fill="#FCFCFC"/>
<path fill-rule="evenodd" clip-rule="evenodd" d="M245.193 21.841L251.543 30.958H260L251.096 18.9686C251.44 18.794 251.82 18.5712 252.267 18.2821C252.715 17.9931 253.168 17.6137 253.633 17.144C254.08 16.6803 254.515 16.1263 254.907 15.476C255.306 14.8196 255.632 14.0669 255.874 13.1877C256.116 12.3085 256.236 11.3149 256.236 10.1768C256.255 8.76771 256.049 7.47303 255.65 6.28674C255.252 5.11851 254.617 4.08277 253.717 3.20961C252.835 2.33043 251.682 1.66201 250.232 1.18027C248.848 0.716592 247.157 0.475721 245.193 0.43959V6.99731C246.021 7.0515 246.698 7.18398 247.193 7.44292C247.815 7.75003 248.226 8.16553 248.486 8.66534C248.727 9.16515 248.848 9.69507 248.83 10.2671C248.812 11.1283 248.607 11.8147 248.19 12.3326C247.761 12.8505 247.205 13.2299 246.48 13.4527C246.081 13.5912 245.653 13.6755 245.187 13.7477V21.853L245.193 21.841ZM241.551 30.958V20.3054H244.124L245.193 21.835V13.7297C244.831 13.7658 244.469 13.7839 244.07 13.7839H241.551V7.03946C242.016 7.03946 242.415 7.0214 242.741 7.00333C243.067 6.98527 243.381 6.98527 243.653 6.9672C243.949 6.94913 244.257 6.94913 244.601 6.94913C244.807 6.9672 245 6.9672 245.187 6.98527V0.433568H244.946C244.789 0.433568 244.481 0.433568 243.997 0.451634C243.514 0.451634 242.928 0.451634 242.239 0.469699C241.569 0.469699 240.844 0.469699 240.065 0.487764C239.303 0.487764 238.548 0.50583 237.823 0.50583C237.098 0.523895 236.44 0.523895 235.872 0.523895H234.579V30.958H241.551Z" fill="#FCFCFC"/>
<path fill-rule="evenodd" clip-rule="evenodd" d="M22.7928 23.0935C21.9108 23.6776 20.9986 24.1233 20.0321 24.4183C18.8903 24.7796 17.7727 24.9663 16.6672 24.9663C15.2838 24.9482 14.0454 24.7254 12.9036 24.2798C11.78 23.8342 10.7953 23.1959 9.98583 22.3709C9.17633 21.564 8.53598 20.5824 8.08894 19.4624C7.66003 18.3423 7.43047 17.1079 7.43047 15.747C7.43047 14.2475 7.65399 12.9227 8.10103 11.7726C8.52994 10.6224 9.15216 9.65894 9.93146 8.88213C10.7108 8.10532 11.6229 7.5212 12.6439 7.12979C13.6769 6.73235 14.7824 6.52761 15.9725 6.52761C16.9209 6.52761 17.7667 6.62998 18.4916 6.78655C19.2346 6.96118 19.8871 7.18398 20.4912 7.47303C21.0772 7.75003 21.6631 8.05714 22.2008 8.40038L25.3059 3.18552C24.6837 2.58334 23.9104 2.03536 22.974 1.56566C22.0256 1.08392 20.9745 0.704548 19.7783 0.427546C18.5883 0.150544 17.3257 0.0120436 15.9664 0C13.8581 0.0180653 11.9612 0.277002 10.2698 0.788853C8.57827 1.32479 7.09217 2.05945 5.79939 3.02293C4.52473 3.96835 3.44943 5.10647 2.5916 6.4132C1.72774 7.73799 1.08739 9.16515 0.658473 10.7489C0.229559 12.3145 0 13.9826 0 15.7409C0.0181231 18.1135 0.398708 20.2633 1.17196 22.1903C1.95125 24.1172 3.03864 25.7853 4.45224 27.1642C5.86584 28.5432 7.55733 29.6091 9.50859 30.3498C11.4598 31.0905 13.6346 31.4698 15.9967 31.4879C17.3921 31.4698 18.7393 31.3133 20.02 31.0242C21.2946 30.7171 22.4545 30.3016 23.4694 29.7837C24.3997 29.302 25.1609 28.766 25.765 28.1639L22.7807 23.0875L22.7928 23.0935Z" fill="#FCFCFC"/>
<path fill-rule="evenodd" clip-rule="evenodd" d="M117.933 23.0935C117.051 23.6776 116.139 24.1233 115.19 24.4183C114.037 24.7796 112.913 24.9663 111.826 24.9663C110.442 24.9482 109.186 24.7254 108.044 24.2798C106.92 23.8342 105.954 23.1959 105.126 22.3709C104.317 21.564 103.676 20.5824 103.247 19.4624C102.8 18.3423 102.577 17.1079 102.577 15.747C102.577 14.2475 102.8 12.9227 103.247 11.7726C103.676 10.6224 104.298 9.65894 105.078 8.88213C105.869 8.10532 106.769 7.5212 107.802 7.12979C108.835 6.73235 109.923 6.52761 111.119 6.52761C112.067 6.52761 112.913 6.62998 113.656 6.78655C114.381 6.96118 115.051 7.18398 115.643 7.47303C116.248 7.75003 116.815 8.05714 117.353 8.40038L120.458 3.18552C119.836 2.58334 119.063 2.03536 118.126 1.56566C117.178 1.08392 116.127 0.704548 114.931 0.427546C113.759 0.150544 112.478 0.0120436 111.119 0C109.01 0.0180653 107.114 0.277002 105.422 0.788853C103.731 1.32479 102.244 2.05945 100.952 3.02293C99.677 3.96835 98.6017 5.10647 97.756 6.4132C96.874 7.73799 96.2397 9.16515 95.8047 10.7489C95.3758 12.3145 95.1463 13.9826 95.1463 15.7409C95.1644 18.1135 95.545 20.2633 96.3182 22.1903C97.0975 24.1172 98.1849 25.7853 99.5985 27.1642C101.03 28.5432 102.704 29.6091 104.673 30.3498C106.606 31.0905 108.781 31.4698 111.161 31.4879C112.544 31.4698 113.886 31.3133 115.166 31.0242C116.441 30.7171 117.601 30.3016 118.634 29.7837C119.546 29.302 120.307 28.766 120.911 28.1639L117.927 23.0875L117.933 23.0935Z" fill="#FCFCFC"/>
<path fill-rule="evenodd" clip-rule="evenodd" d="M125.786 30.958H144.236V24.4364H132.776V18.9144H144.236V12.3928H132.776V7.04548H144.236V0.523895H125.786V30.958Z" fill="#FCFCFC"/>
</svg>

<svg width="260" height="32" fill="none" xmlns="http://www.w3.org/2000/svg"><path d="M37.086.524h-6.99v30.434h6.99V.524z" fill="#FCFCFC"/><path fill-rule="evenodd" clip-rule="evenodd" d="M41.883 7.045h8.807v23.913h6.972V7.045h9.508v-.018L63.237.524H41.882v6.521zM96.131.524h-7.54L82.135 12.05 75.59.524h-7.986L78.34 18.57v12.387h6.971V18.571L96.131.524zm81.246 30.434v-23.9L173.408.524h-2.574v18.354L156.354.524h-5.576v30.434h6.543V12.706l14.462 18.252h5.594zm5.594-23.913h5.539v23.913h6.972V7.045h9.164V.524h-25.632l3.957 6.521zm26.526 23.913h18.437v-6.522h-11.466v-5.522h11.466v-6.521h-11.466V7.045h11.466V.524h-18.437v30.434zm35.696-9.117l6.35 9.117H260l-8.904-11.99a12.94 12.94 0 001.171-.686 8.236 8.236 0 001.366-1.138 9.368 9.368 0 001.274-1.668c.399-.656.725-1.41.967-2.288.242-.88.362-1.873.362-3.011a11.626 11.626 0 00-.586-3.89 7.672 7.672 0 00-1.933-3.077c-.882-.88-2.035-1.548-3.485-2.03-1.384-.463-3.075-.704-5.039-.74v6.557c.828.054 1.505.187 2 .446.622.307 1.033.723 1.293 1.222.241.5.362 1.03.344 1.602-.018.861-.223 1.548-.64 2.066-.429.518-.985.897-1.71 1.12a7.407 7.407 0 01-1.293.295v8.105l.006-.012zm-3.642 9.117V20.305h2.573l1.069 1.53V13.73c-.362.036-.724.054-1.123.054h-2.519V7.039c.465 0 .864-.018 1.19-.036.326-.018.64-.018.912-.036.296-.018.604-.018.948-.018.206.018.399.018.586.036V.434h-.241c-.157 0-.465 0-.949.018-.483 0-1.069 0-1.758.018-.67 0-1.395 0-2.174.018-.762 0-1.517.018-2.242.018-.725.018-1.383.018-1.951.018h-1.293v30.434h6.972zM22.793 23.093a10.57 10.57 0 01-2.76 1.325c-1.143.362-2.26.548-3.366.548-1.383-.018-2.622-.24-3.763-.686-1.124-.446-2.109-1.084-2.918-1.91a8.555 8.555 0 01-1.897-2.908c-.429-1.12-.659-2.354-.659-3.715 0-1.5.224-2.824.671-3.974.429-1.15 1.051-2.114 1.83-2.89a7.727 7.727 0 012.713-1.753 9.177 9.177 0 013.329-.602c.948 0 1.794.102 2.519.259a9.735 9.735 0 012 .686c.585.277 1.171.584 1.709.927l3.105-5.214c-.622-.603-1.396-1.15-2.332-1.62-.948-.482-2-.861-3.196-1.138C18.588.15 17.326.012 15.966 0c-2.108.018-4.005.277-5.696.789-1.692.536-3.178 1.27-4.47 2.234a13.279 13.279 0 00-3.208 3.39A15.036 15.036 0 00.658 10.75 18.84 18.84 0 000 15.74c.018 2.372.399 4.522 1.172 6.45.78 1.926 1.867 3.594 3.28 4.973 1.414 1.38 3.105 2.445 5.057 3.186 1.95.74 4.126 1.12 6.488 1.138a19.412 19.412 0 004.023-.464c1.275-.307 2.434-.722 3.45-1.24.93-.482 1.69-1.018 2.295-1.62l-2.984-5.077.012.006zm95.14 0a10.737 10.737 0 01-2.743 1.325c-1.153.362-2.277.548-3.364.548-1.384-.018-2.64-.24-3.782-.686a8.54 8.54 0 01-2.918-1.91 8.262 8.262 0 01-1.879-2.908c-.447-1.12-.67-2.354-.67-3.715 0-1.5.223-2.824.67-3.974.429-1.15 1.051-2.114 1.831-2.89a7.77 7.77 0 012.724-1.753 9.092 9.092 0 013.317-.602c.948 0 1.794.102 2.537.259a9.738 9.738 0 011.987.686c.605.277 1.172.584 1.71.927l3.105-5.214c-.622-.603-1.395-1.15-2.332-1.62a13.922 13.922 0 00-3.195-1.138C113.759.15 112.478.012 111.119 0c-2.109.018-4.005.277-5.697.789-1.691.536-3.178 1.27-4.47 2.234a13.021 13.021 0 00-3.196 3.39c-.882 1.325-1.516 2.752-1.951 4.336a18.84 18.84 0 00-.659 4.992c.018 2.372.399 4.522 1.172 6.45.78 1.926 1.867 3.594 3.28 4.973a14.632 14.632 0 005.075 3.186c1.933.74 4.108 1.12 6.488 1.138a19.328 19.328 0 004.005-.464 16.187 16.187 0 003.468-1.24c.912-.482 1.673-1.018 2.277-1.62l-2.984-5.077.006.006zm7.853 7.865h18.45v-6.522h-11.46v-5.522h11.46v-6.521h-11.46V7.045h11.46V.524h-18.45v30.434z" fill="#FCFCFC"/></svg>
